!!! OTL: Berkowitz337
!!! Chapter: 1
!!! Section: III
!!! Page: 82
!!! Mode: 
!!! Encoder: DJB
**kern
*staff1
*I"Piano
=1-
*clefF4
*k[f#c#]
*D:
*met(c)
*M4/4
4F#\
4F#\
8G\L
8F#\
8E\
8D\J
=2
8C#\L
8E\J
4A\
8BB/L
8D/J
4G\
=3
8AA/L
8D/
8F#/
8D/J
2E\
=4
8D#\L
8E\
8F#\
8D#\J
4E\
4G\
=5
8D#\L
8E\
8F#\
8D#\J
4E\
8E\L
8Dn\J
=6
8C#/L
8BB/
8AA/
8D/J
8AA\L
8E\
8G\
8E\J
=7
!!linebreak:original
4F#\
4A\
4d\
8B\L
8G\J
=8
8A\L
8F#\J
4D\
8G\L
8E\J
4C#/
=9
2.D\
4r
==
*-
